svg/24/camera-frame-preset--filled.svg

<svg width="24" height="24" viewBox="0 0 24 24" fill="currentColor" xmlns="http://www.w3.org/2000/svg"><path d="M2.75 2C2.33579 2 2 2.33579 2 2.75V5.25C2 5.66421 2.33579 6 2.75 6C3.16421 6 3.5 5.66421 3.5 5.25V3.5H5.25C5.66421 3.5 6 3.16421 6 2.75C6 2.33579 5.66421 2 5.25 2H2.75Z"/><path d="M2 18.75V21.25C2 21.4489 2.07902 21.6397 2.21967 21.7803C2.36032 21.921 2.55109 22 2.75 22H5.25C5.66421 22 6 21.6642 6 21.25C6 20.8358 5.66421 20.5 5.25 20.5H3.5L3.5 18.75C3.5 18.3358 3.16421 18 2.75 18C2.33579 18 2 18.3358 2 18.75Z"/><path d="M18.75 22H21.25C21.4489 22 21.6397 21.921 21.7803 21.7803C21.921 21.6397 22 21.4489 22 21.25V18.75C22 18.3358 21.6642 18 21.25 18C20.8358 18 20.5 18.3358 20.5 18.75V20.5H18.75C18.3358 20.5 18 20.8358 18 21.25C18 21.6642 18.3358 22 18.75 22Z"/><path d="M22 5.25V2.75C22 2.33579 21.6642 2 21.25 2H18.75C18.3358 2 18 2.33579 18 2.75C18 3.16421 18.3358 3.5 18.75 3.5L20.5 3.5V5.25C20.5 5.66421 20.8358 6 21.25 6C21.6642 6 22 5.66421 22 5.25Z"/><path fill-rule="evenodd" clip-rule="evenodd" d="M5 7C5 5.89543 5.89543 5 7 5H17C18.1046 5 19 5.89543 19 7V17C19 18.1046 18.1046 19 17 19H7C5.89543 19 5 18.1046 5 17V7ZM15 6.5H17C17.2761 6.5 17.5 6.72386 17.5 7V17C17.5 17.2761 17.2761 17.5 17 17.5H7C6.72386 17.5 6.5 17.2761 6.5 17V15H13C14.1046 15 15 14.1046 15 13V6.5Z"/></svg>

<svg xmlns="http://www.w3.org/2000/svg" width="24" height="24" fill="currentColor" viewBox="0 0 24 24">
  <path d="M2.75 2a.75.75 0 0 0-.75.75v2.5a.75.75 0 0 0 1.5 0V3.5h1.75a.75.75 0 0 0 0-1.5h-2.5ZM2 18.75v2.5a.75.75 0 0 0 .75.75h2.5a.75.75 0 0 0 0-1.5H3.5v-1.75a.75.75 0 0 0-1.5 0ZM18.75 22h2.5a.75.75 0 0 0 .75-.75v-2.5a.75.75 0 0 0-1.5 0v1.75h-1.75a.75.75 0 0 0 0 1.5ZM22 5.25v-2.5a.75.75 0 0 0-.75-.75h-2.5a.75.75 0 0 0 0 1.5h1.75v1.75a.75.75 0 0 0 1.5 0Z"/>
  <path fill-rule="evenodd" d="M5 7a2 2 0 0 1 2-2h10a2 2 0 0 1 2 2v10a2 2 0 0 1-2 2H7a2 2 0 0 1-2-2V7Zm10-.5h2a.5.5 0 0 1 .5.5v10a.5.5 0 0 1-.5.5H7a.5.5 0 0 1-.5-.5v-2H13a2 2 0 0 0 2-2V6.5Z" clip-rule="evenodd"/>
</svg>
